**kern	**silbe	**kern	**silbe
*ICvox	*	*ICvox	*
*E-:	*	*E-:	*
*M4/4	*	*M4/4	*
*clefG2	*	*clefG2	*
r;	.	r;	.
r;	.	r;	.
=1	=1	=1	=1
2r	.	1r	.
4.r	.	.	.
16f	Get	.	.
16[g-	up	.	.
=2	=2	=2	=2
16g-]	_	4r	.
16e-~	ah	.	.
8r	.	.	.
4r	.	16e-	Get
.	.	8e-	on
.	.	16e-	up
4.r	.	2r	.
16e-	Get	.	.
16[e-	up	.	.
=3	=3	=3	=3
16e-]	_	4r	.
16e-~	ah	.	.
8r	.	.	.
4r	.	16e-	Get
.	.	8e-	on
.	.	16e-	up
4r	.	2r	.
16e-	Stay	.	.
8e-	on	.	.
16e-	the	.	.
=4	=4	=4	=4
8g-	scene	4r	.
16e-~	uh	.	.
16r	.	.	.
4r	.	16e-	Get
.	.	8e-	on
.	.	16e-	up
16r	.	2r	.
16d-~	Uh	.	.
16e-~	like	.	.
16e-~	a	.	.
8f	sex	.	.
16d-	ma-	.	.
16[d-	-chine	.	.
=5	=5	=5	=5
16d-]	_	4r	.
16d~	uh	.	.
8r	.	.	.
4r	.	16e-	Get
.	.	8e-	on
.	.	16e-	up
4r	.	2r	.
8r	.	.	.
16g-	Get	.	.
16[a-	up	.	.
=6	=6	=6	=6
16a-]	_	4r	.
16e-~	ah	.	.
8r	.	.	.
4r	.	16e-	Get
.	.	8e-	on
.	.	16e-	up
4.r	.	2r	.
16a	Get	.	.
16[b-	up	.	.
=7	=7	=7	=7
16b-]	_	4r	.
16e-~	ah	.	.
8r	.	.	.
4r	.	16e-	Get
.	.	8e-	on
.	.	16e-	up
4r	.	2r	.
16e-	Stay	.	.
8e-	on	.	.
16e-	the	.	.
=8	=8	=8	=8
8g-	scene	4r	.
16e-~	uh	.	.
16r	.	.	.
4r	.	16e-	Get
.	.	8e-	on
.	.	16e-	up
16r	.	2r	.
16d-~	Uh	.	.
16e-~	like	.	.
16e-~	a	.	.
8f	sex	.	.
16e-	ma-	.	.
16[e-	-chine	.	.
=9	=9	=9	=9
16e-]	_	4r	.
16B-~	uh	.	.
8r	.	.	.
4r	.	16e-	Get
.	.	8e-	on
.	.	16e-	up
4.r	.	2r	.
16cc	Get	.	.
16[dd-	up	.	.
=10	=10	=10	=10
16dd-]	_	4r	.
16b-~	ah	.	.
8r	.	.	.
4r	.	16e-	Get
.	.	8e-	on
.	.	16e-	up
4r	.	2r	.
16e-	Stay	.	.
8e-	on	.	.
16e-	the	.	.
=11	=11	=11	=11
8g-	scene	4r	.
16e-~	uh	.	.
16r	.	.	.
4r	.	16e-	Get
.	.	8e-	on
.	.	16e-	up
16r	.	2r	.
16d-~	Uh	.	.
16e-~	like	.	.
16e-~	a	.	.
8f	sex	.	.
16e-	ma-	.	.
16[e-	-chine	.	.
=12	=12	=12	=12
16e-]	_	4r	.
16B-~	uh	.	.
8r	.	.	.
4r	.	16e-	Get
.	.	8e-	on
.	.	16e-	up
16r	.	2r	.
16d-~	Uh	.	.
16e-~	wait	.	.
16e-~	a	.	.
16e-~	mi-	.	.
8.B-~	-nute	.	.
=13	=13	=13	=13
8r	.	1r	.
16e-	Shake	.	.
16[d-	your	.	.
16d-]	_	.	.
16e-	arm	.	.
8B-	_	.	.
4r	.	.	.
8r	.	.	.
16d-	then	.	.
16[e-	use	.	.
=14	=14	=14	=14
16e-]	_	1r	.
8B-	your	.	.
16e-	form	.	.
8f	_	.	.
8r	.	.	.
2r	.	.	.
=15	=15	=15	=15
16a	Stay	1r	.
8a-	on	.	.
16g	the	.	.
8a-	scene	.	.
8e-~	uh	.	.
4r	.	.	.
16r	.	.	.
16d-~	Uh	.	.
16e-~	like	.	.
16e-~	a	.	.
=16	=16	=16	=16
8e-	sex	1r	.
16d-	ma-	.	.
16[e-	-chine	.	.
16e-]	_	.	.
16B-~	uh	.	.
8r	.	.	.
4r	.	.	.
8.r	.	.	.
16d-~	Ya	.	.
=17	=17	=17	=17
16d-	got-	1r	.
16d-	-ta	.	.
16e-	have	.	.
16e-	the	.	.
8f	fee-	.	.
8d-	-lin'	.	.
2r	.	.	.
=18	=18	=18	=18
16d-	Sure	1r	.
16d-	as	.	.
16d-	you're	.	.
16f	born	.	.
8g	_	.	.
8r	.	.	.
4r	.	.	.
8.r	.	.	.
16e-	and	.	.
=19	=19	=19	=19
16e-	get	1r	.
16e-	it	.	.
16e-~	to-	.	.
16[e-	-ge-	.	.
16e-]	_	.	.
16d-	-ther	.	.
8r	.	.	.
4r	.	.	.
8r	.	.	.
16e-	Right	.	.
16[e-	on	.	.
=20	=20	=20	=20
16e-]	_	1r	.
8e-	Right	.	.
16[d-	on	.	.
16d-]	_	.	.
16r	.	.	.
8r	.	.	.
4.r	.	.	.
16f	Get	.	.
16[g-	up	.	.
=21	=21	=21	=21
16g-]	_	4r	.
16e-~	ah	.	.
8r	.	.	.
4r	.	16e-	Get
.	.	8e-	on
.	.	16e-	up
4r	.	2r	.
8r	.	.	.
16f#	Get	.	.
16[g	up	.	.
=22	=22	=22	=22
16g]	_	4r	.
16e-~	ah	.	.
8r	.	.	.
4r	.	16e-	Get
.	.	8e-	on
.	.	16e-	up
4.r	.	2r	.
16g	Get	.	.
16[a-	up	.	.
=23	=23	=23	=23
16a-]	_	4r	.
16e-~	ah	.	.
8r	.	.	.
4r	.	16e-	Get
.	.	8e-	on
.	.	16e-	up
2r	.	2r	.
=24	=24	=24	=24
1r	.	1r	.
=25	=25	=25	=25
1r	.	1r	.
=26	=26	=26	=26
2r	.	1r	.
4.r	.	.	.
8b-~	Huh!	.	.
=27	=27	=27	=27
1r	.	1r	.
=28	=28	=28	=28
1r	.	1r	.
=29	=29	=29	=29
1r	.	1r	.
=30	=30	=30	=30
1r	.	1r	.
=31	=31	=31	=31
2r	.	1r	.
4.r	.	.	.
16e-	Get	.	.
16[e-	up	.	.
=32	=32	=32	=32
16e-]	_	4r	.
16d-~	ah	.	.
8r	.	.	.
4r	.	16e-	Get
.	.	8e-	on
.	.	16e-	up
4r	.	2r	.
8r	.	.	.
16g	Get	.	.
16[a-	up	.	.
=33	=33	=33	=33
16a-]	_	4r	.
16e-~	ah	.	.
8r	.	.	.
4r	.	16e-	Get
.	.	8e-	on
.	.	16e-	up
4r	.	2r	.
8r	.	.	.
16dd-	Get	.	.
16[ee-	up	.	.
=34	=34	=34	=34
16ee-]	_	4r	.
16r	.	.	.
8e-~	ah	.	.
4r	.	16e-	Get
.	.	8e-	on
.	.	16e-	up
4.r	.	2r	.
16e-	Get	.	.
16[e-	up	.	.
=35	=35	=35	=35
16e-]	_	4r	.
16e-~	ah	.	.
8r	.	.	.
4r	.	16e-	Get
.	.	8e-	on
.	.	16e-	up
4.r	.	2r	.
16e-~	You	.	.
16[f~	said	.	.
=36	=36	=36	=36
16f~]	_	1r	.
16e-~	uh	.	.
8r	.	.	.
4r	.	.	.
8.r	.	.	.
16d-	I	.	.
16e-	said	.	.
16d-	you	.	.
16e-	got-	.	.
16d-~	-ta	.	.
=37	=37	=37	=37
2r	.	1r	.
4r	.	.	.
16r	.	.	.
16d-~	Uh	.	.
16e-	said	.	.
16d-	the	.	.
=38	=38	=38	=38
8f	fee-	1r	.
16d-	-lin'	.	.
16r	.	.	.
4r	.	.	.
8.r	.	.	.
16d-~	You	.	.
8d-	got-	.	.
16d-~	-ta	.	.
16[g	get	.	.
=39	=39	=39	=39
16g]	_	1r	.
16d-~	ah	.	.
8r	.	.	.
4r	.	.	.
4r	.	.	.
16r	.	.	.
16g-~	Ya	.	.
16a-	give	.	.
16g-	me	.	.
=40	=40	=40	=40
8a-	fe-	1r	.
16e-	-ver	.	.
16r	.	.	.
4r	.	.	.
4.r	.	.	.
16e-	and	.	.
16d-	a	.	.
=41	=41	=41	=41
16g-	cold	1r	.
8e-	_	.	.
16[d-	sweat	.	.
16d-]	_	.	.
16r	.	.	.
8r	.	.	.
4r	.	.	.
8.r	.	.	.
16d-	The	.	.
=42	=42	=42	=42
16e-	way	1r	.
8e-	I	.	.
16[e-	like	.	.
16e-]	_	.	.
16d-	it	.	.
8r	.	.	.
4.r	.	.	.
16d-	There's	.	.
16d-	the	.	.
=43	=43	=43	=43
16e-	way	1r	.
16e-	it	.	.
16r	.	.	.
16[g	is	.	.
16g]	_	.	.
16g	_	.	.
8r	.	.	.
4r	.	.	.
8.r	.	.	.
16[a	I've	.	.
=44	=44	=44	=44
16a]	_	1r	.
8a-	got	.	.
16g-	mine	.	.
16e-	_	.	.
16e-~	uh	.	.
8r	.	.	.
4.r	.	.	.
16e-	don't	.	.
16[e-	wor-	.	.
=45	=45	=45	=45
16e-]	_	1r	.
16e-	-ry	.	.
16e-	'bout	.	.
16[e-	his	.	.
16e-]	_	.	.
16d-~	uh	.	.
8r	.	.	.
4.r	.	.	.
16e-	Get	.	.
16[e-	up	.	.
=46	=46	=46	=46
16e-]	_	4r	.
16d-~	ah	.	.
8r	.	.	.
4r	.	16d-	Get
.	.	8d-	on
.	.	16d-	up
4r	.	2r	.
16e-	Stay	.	.
8e-	on	.	.
16e-	the	.	.
=47	=47	=47	=47
8g-	scene	4r	.
16d-~	uh	.	.
16r	.	.	.
4r	.	16d-	Get
.	.	8d-	on
.	.	16d-	up
8r	.	2r	.
16e-~	like	.	.
16e-~	a	.	.
8f	sex	.	.
16d-	ma-	.	.
16[e-	-chine	.	.
=48	=48	=48	=48
16e-]	_	4r	.
16B-~	uh	.	.
8r	.	.	.
4r	.	16d-	Get
.	.	8d-	on
.	.	16d-	up
4.r	.	2r	.
16f	Get	.	.
16[g-	up	.	.
=49	=49	=49	=49
16g-]	_	4r	.
16e-~	ah	.	.
8r	.	.	.
4r	.	16d-	Get
.	.	8d-	on
.	.	16d-	up
4.r	.	2r	.
16e-	Get	.	.
16[e-	up	.	.
=50	=50	=50	=50
16e-]	_	4r	.
16d-~	ah	.	.
8r	.	.	.
4r	.	16d-	Get
.	.	8d-	on
.	.	16d-	up
2r	.	2r	.
=51	=51	=51	=51
1r	.	1r	.
=52	=52	=52	=52
1r	.	1r	.
=53	=53	=53	=53
1r	.	1r	.
=54	=54	=54	=54
2r	.	1r	.
8r	.	.	.
16cc~	Hit	.	.
16b-~	me	.	.
4g~	now!	.	.
=55	=55	=55	=55
2r	.	1r	.
4.r	.	.	.
16B-~	Come	.	.
16[B-~	on	.	.
=56	=56	=56	=56
16B-~]	_	1r	.
16B-~	now	.	.
8r	.	.	.
4r	.	.	.
4r	.	.	.
16e-	Stay	.	.
8e-	on	.	.
16e-	the	.	.
=57	=57	=57	=57
8g-	scene	1r	.
16d-~	uh	.	.
16r	.	.	.
4r	.	.	.
16r	.	.	.
16d-~	Uh	.	.
16e-~	like	.	.
16e-~	a	.	.
8f~	sex	.	.
16e-	ma-	.	.
16[e-	-chine	.	.
=58	=58	=58	=58
16e-]	_	1r	.
16d-~	uh	.	.
8r	.	.	.
4r	.	.	.
8.r	.	.	.
16g-~	The	.	.
16g-	way	.	.
8g-	I	.	.
16[a-	like	.	.
=59	=59	=59	=59
16a-]	_	1r	.
16b-	it	.	.
8r	.	.	.
4r	.	.	.
8r	.	.	.
16d-~	is	.	.
16d-~	the	.	.
16e-	way	.	.
16e-	it	.	.
16r	.	.	.
16[g-	is	.	.
=60	=60	=60	=60
8g-]	_	1r	.
8r	.	.	.
4r	.	.	.
8r	.	.	.
16r	.	.	.
16[e-	I	.	.
16e-]	_	.	.
8e-	got	.	.
16[d-~	my	.	.
=61	=61	=61	=61
16d-~]	_	1r	.
16r	.	.	.
16g-~	Dig	.	.
16d-~	it!	.	.
4r	.	.	.
8.r	.	.	.
16[e-	He	.	.
16e-]	_	.	.
8e-	got	.	.
16[d-~	his	.	.
=62	=62	=62	=62
8d-~]	_	1r	.
8r	.	.	.
4r	.	.	.
4r	.	.	.
16e-	Stay	.	.
8e-	on	.	.
16e-	the	.	.
=63	=63	=63	=63
8e-	scene	1r	.
16d-~	uh	.	.
16r	.	.	.
4r	.	.	.
16r	.	.	.
16d-~	uh	.	.
16e-~	like	.	.
16d-~	a	.	.
16f	lov-	.	.
16e-	-in'	.	.
16d-	ma-	.	.
16[e-	-chine	.	.
=64	=64	=64	=64
16e-]	_	1r	.
16B-~	uh	.	.
8r	.	.	.
4r	.	.	.
4r	.	.	.
16g-	Stay	.	.
8a-	on	.	.
16a	the	.	.
=65	=65	=65	=65
8b-	scene	1r	.
16g-~	uh	.	.
16r	.	.	.
4r	.	.	.
16r	.	.	.
16d-~	uh	.	.
16e-~	like	.	.
16d-~	a	.	.
16f	lov-	.	.
16e-	-in'	.	.
16d-	ma-	.	.
16[e-	-chine	.	.
=66	=66	=66	=66
8e-]	_	1r	.
8r	.	.	.
4r	.	.	.
4r	.	.	.
16b-	Stay	.	.
8a-	on	.	.
16g-	the	.	.
=67	=67	=67	=67
8a-	scene	1r	.
16e-~	uh	.	.
16r	.	.	.
4r	.	.	.
2r	.	.	.
=68	=68	=68	=68
1r	.	1r	.
=69	=69	=69	=69
1r	.	1r	.
=70	=70	=70	=70
2r	.	1r	.
8r	.	.	.
16b-~	Hit	.	.
16b-~	it	.	.
8a-~	now!	.	.
8r	.	.	.
=71	=71	=71	=71
1r	.	1r	.
=72	=72	=72	=72
16g-	Get	2r	.
8g-	on	.	.
16g-	up	.	.
4r	.	.	.
4.r	.	16e-	Get
.	.	8e-	on
.	.	16e-	up
.	.	4r	.
16e-	Get	.	.
16[e-	up	.	.
=73	=73	=73	=73
16e-]	_	4r	.
16d-~	ah	.	.
8r	.	.	.
4r	.	16e-	Get
.	.	8e-	on
.	.	16e-	up
4.r	.	2r	.
16g-	Get	.	.
16[a-	up	.	.
=74	=74	=74	=74
16a-]	_	4r	.
16e-~	ah	.	.
8r	.	.	.
4r	.	16e-	Get
.	.	8e-	on
.	.	16e-	up
4r	.	2r	.
16e-	Get	.	.
8e-	on	.	.
16e-	up	.	.
=75	=75	=75	=75
2r	.	4r	.
.	.	16e-	Get
.	.	8e-	on
.	.	16e-	up
4r	.	2r	.
16e-	Stay	.	.
8e-	on	.	.
16e-	the	.	.
=76	=76	=76	=76
8e-	scene	4r	.
16B-~	uh	.	.
16r	.	.	.
4r	.	16e-	Get
.	.	8e-	on
.	.	16e-	up
16r	.	2r	.
16d-~	uh	.	.
16e-~	like	.	.
16d-~	a	.	.
16f	lov-	.	.
16e-	-in'	.	.
16d-	ma-	.	.
16[e-	-chine	.	.
=77	=77	=77	=77
16e-]	_	4r	.
16B-~	uh	.	.
8r	.	.	.
4r	.	16e-	Get
.	.	8e-	on
.	.	16e-	up
4.r	.	2r	.
16b-	Get	.	.
16[a	up	.	.
=78	=78	=78	=78
16a]	_	4r	.
16e-~	ah	.	.
8r	.	.	.
4r	.	16e-	Get
.	.	8e-	on
.	.	16e-	up
4r	.	2r	.
8r	.	.	.
8[g-~	Taste	.	.
=79	=79	=79	=79
16g-~]	_	4r	.
16B-~	ah	.	.
8r	.	.	.
4r	.	16e-	Get
.	.	8e-	on
.	.	16e-	up
4r	.	2r	.
16r	.	.	.
16B-~	Uh	.	.
16e-	pi-	.	.
16[d	-an-	.	.
=80	=80	=80	=80
16d]	_	4r	.
16G-~	-a	.	.
8r	.	.	.
4r	.	16e-	Get
.	.	8e-	on
.	.	16e-	up
4r	.	2r	.
8r	.	.	.
8[g-~	Take	.	.
=81	=81	=81	=81
16g-~]	_	4r	.
16B-~	me	.	.
8r	.	.	.
4r	.	16e-	Get
.	.	8e-	on
.	.	16e-	up
4r	.	2r	.
8r	.	.	.
16e-	pi-	.	.
16[d-	-an-	.	.
=82	=82	=82	=82
16d-]	_	4r	.
16G-~	-a	.	.
8r	.	.	.
4r	.	16e-	Get
.	.	8e-	on
.	.	16e-	up
2r	.	2r	.
=83	=83	=83	=83
1r	.	1r	.
=84	=84	=84	=84
1r	.	1r	.
=85	=85	=85	=85
1r	.	1r	.
=86	=86	=86	=86
1r	.	1r	.
=87	=87	=87	=87
1r	.	1r	.
=88	=88	=88	=88
1r	.	1r	.
=89	=89	=89	=89
1r	.	1r	.
=90	=90	=90	=90
2r	.	1r	.
4.r	.	.	.
16g-	Get	.	.
16[f	up	.	.
=91	=91	=91	=91
16f]	_	4r	.
16e-~	ah	.	.
8r	.	.	.
4r	.	16e-	Get
.	.	8e-	on
.	.	16e-	up
4.r	.	2r	.
16b-	Get	.	.
16[b-	up	.	.
=92	=92	=92	=92
16b-]	_	4r	.
16g-~	ah	.	.
8r	.	.	.
4r	.	16e-	Get
.	.	8e-	on
.	.	16e-	up
4r	.	2r	.
16e-	Stay	.	.
8e-	on	.	.
16e-	the	.	.
=93	=93	=93	=93
8e-	scene	4r	.
8r	.	.	.
4r	.	16e-	Get
.	.	8e-	on
.	.	16e-	up
16r	.	2r	.
16d-~	Uh	.	.
16e-~	like	.	.
16e-~	a	.	.
8f	sex	.	.
16e-	ma-	.	.
16[e-	-chine	.	.
=94	=94	=94	=94
16e-]	_	4r	.
16d-~	uh	.	.
8r	.	.	.
4r	.	16e-	Get
.	.	8e-	on
.	.	16e-	up
8.r	.	2r	.
16d-~	You	.	.
16e-~	got-	.	.
16d-~	-ta	.	.
16e-~	have	.	.
16d-~	the	.	.
=95	=95	=95	=95
8e-	fee-	4r	.
16d-~	-lin'	.	.
16r	.	.	.
4r	.	16e-	Get
.	.	8e-	on
.	.	16e-	up
4r	.	2r	.
16d-	sure	.	.
16d-	as	.	.
16d-	you're	.	.
16[g-	born	.	.
=96	=96	=96	=96
8g-]	_	4r	.
8r	.	.	.
4r	.	16e-	Get
.	.	8e-	on
.	.	16e-	up
4.r	.	2r	.
16b-	Get	.	.
16b-	it	.	.
=97	=97	=97	=97
16r	.	1r	.
16d~	t	.	.
16r	.	.	.
16d	to-	.	.
16e-	-ge-	.	.
16d	-ther	.	.
8r	.	.	.
4r	.	.	.
8r	.	.	.
16e-	Right	.	.
16[e-	on	.	.
=98	=98	=98	=98
16e-]	_	1r	.
8e-	right	.	.
16[d-	on	.	.
16d-]	_	.	.
16r	.	.	.
8r	.	.	.
4.r	.	.	.
16g-	Right	.	.
16[g-	on	.	.
=99	=99	=99	=99
8g-]	_	4.r	.
16g-	right	.	.
16[e-	on	.	.
8e-]	_	.	.
8r	.	16e-	Right
.	.	16[e-	on
4.r	.	16e-]	_
.	.	16e-	n'
.	.	16e-	Right
.	.	16[d-	on
.	.	16d-]	_
.	.	16r	.
16g-	Right	8r	.
16[a-	on	.	.
=100	=100	=100	=100
16a-]	_	4.r	.
16e-	n'	.	.
16g-	right	.	.
16[g-	on	.	.
16g-]	_	.	.
16r	.	.	.
8r	.	16e-	Right
.	.	16[e-	on
4r	.	16e-]	_
.	.	16e-	n'
.	.	16e-	Right
.	.	16[e-	on
8r	.	8e-]	_
16a-	Right	8r	.
16[a	on	.	.
=101	=101	=101	=101
16a]	_	4.r	.
16e-~	n'	.	.
16g-	right	.	.
16[g-	on	.	.
8g-]	_	.	.
8r	.	16e-	Right
.	.	16[e-	on
4.r	.	16e-]	_
.	.	16e-	n'
.	.	16e-	Right
.	.	16[d-	on
.	.	16d-]	_
.	.	16r	.
16e-	Get	8r	.
16[e-	up	.	.
=102	=102	=102	=102
16e-]	_	4r	.
16d-~	ah	.	.
8r	.	.	.
4r	.	16e-	Get
.	.	8e-	on
.	.	16e-	up
4.r	.	2r	.
16g	Get	.	.
16[a-	up	.	.
=103	=103	=103	=103
16a-]	_	4r	.
16e-~	ah	.	.
8r	.	.	.
4r	.	16e-	Get
.	.	8e-	on
.	.	16e-	up
8r	.	2r	.
16d-~	and	.	.
16[e-~	then	.	.
8e-~]	_	.	.
8r	.	.	.
=104	=104	=104	=104
8g-	Shake	8e-	Shake
8g-	your	8e-	your
8g-	mo-	8e-	mo-
16g-	-ney	16e-	-ney
16[g-	ma-	16[e-	ma-
16g-]	_	16e-]	_
16r	.	16r	.
16g-	-ker	16e-	-ker
16r	.	16r	.
4r	.	4r	.
=105	=105	=105	=105
8g-	Shake	8e-	Shake
8g-	your	8e-	your
8g-	mo-	8e-	mo-
16g-	-ney	16e-	-ney
16[g-	ma-	16[e-	ma-
16g-]	_	16e-]	_
16r	.	16r	.
16g-	-ker	16e-	-ker
16r	.	16r	.
4r	.	4r	.
=106	=106	=106	=106
8g-	Shake	8e-	Shake
8g-	your	8e-	your
8g-	mo-	8e-	mo-
16g-	-ney	16e-	-ney
16[g-	ma-	16[e-	ma-
16g-]	_	16e-]	_
16r	.	16r	.
16g-	-ker	16e-	-ker
16r	.	16r	.
4r	.	4r	.
=107	=107	=107	=107
8g-	Shake	8e-	Shake
8g-	your	8e-	your
8g-	mo-	8e-	mo-
16g-	-ney	16e-	-ney
16[g-	ma-	16[e-	ma-
16g-]	_	16e-]	_
16r	.	16r	.
16g-	-ker	16e-	-ker
16r	.	16r	.
4r	.	4r	.
=108	=108	=108	=108
8g-	Shake	8e-	Shake
8g-	your	8e-	your
8g-	mo-	8e-	mo-
16g-	-ney	16e-	-ney
16[g-	ma-	16[e-	ma-
16g-]	_	16e-]	_
16r	.	16r	.
16g-	-ker	16e-	-ker
16r	.	16r	.
4r	.	4r	.
=109	=109	=109	=109
8g-	Shake	8e-	Shake
8g-	your	8e-	your
8g-	mo-	8e-	mo-
16g-	-ney	16e-	-ney
16[g-	ma-	16[e-	ma-
16g-]	_	16e-]	_
16r	.	16r	.
16g-	-ker	16e-	-ker
16r	.	16r	.
4r	.	4r	.
=110	=110	=110	=110
8g-	Shake	8e-	Shake
8g-	your	8e-	your
8g-	mo-	8e-	mo-
16g-	-ney	16e-	-ney
16[g-	ma-	16[e-	ma-
16g-]	_	16e-]	_
16r	.	16r	.
16g-	-ker	16e-	-ker
16r	.	16r	.
8r	.	4r	.
16d	Get	.	.
16[e-	up	.	.
=111	=111	=111	=111
16e-]	_	4r	.
16d-~	ah	.	.
8r	.	.	.
4r	.	16e-	Get
.	.	8e-	on
.	.	16e-	up
4.r	.	2r	.
16a-	Get	.	.
16[b-	up	.	.
=112	=112	=112	=112
16b-]	_	4r	.
16r	.	.	.
16e-~	ah	.	.
16r	.	.	.
4r	.	16e-	Get
.	.	8e-	on
.	.	16e-	up
4.r	.	2r	.
16g-	Get	.	.
16[a-	up	.	.
=113	=113	=113	=113
16a-]	_	4r	.
16e-~	ah	.	.
8r	.	.	.
4r	.	16e-	Get
.	.	8e-	on
.	.	16e-	up
4.r	.	2r	.
16dd	Get	.	.
16[ee-	up	.	.
=114	=114	=114	=114
8ee-]	_	4r	.
8r	.	.	.
4r	.	16e-	Get
.	.	8e-	on
.	.	16e-	up
4.r	.	2r	.
16dd	Get	.	.
16[ee-	up	.	.
=115	=115	=115	=115
8ee-]	_	4r	.
16e-~	ah	.	.
16r	.	.	.
4r	.	16e-	Get
.	.	8e-	on
.	.	16e-	up
2r	.	2r	.
=116	=116	=116	=116
1r	.	1r	.
=117	=117	=117	=117
1r	.	1r	.
=118	=118	=118	=118
1r	.	1r	.
=119	=119	=119	=119
1r	.	1r	.
=120	=120	=120	=120
1r	.	1r	.
=121	=121	=121	=121
1r	.	1r	.
=122	=122	=122	=122
1r	.	1r	.
=123	=123	=123	=123
1r	.	1r	.
=124	=124	=124	=124
1r	.	1r	.
=125	=125	=125	=125
1r	.	1r	.
=126	=126	=126	=126
8r	.	1r	.
8B-~	Huh	.	.
4r	.	.	.
4.r	.	.	.
16e-	Get	.	.
16[e-	up	.	.
=127	=127	=127	=127
16e-]	_	4r	.
16e-~	ah	.	.
8r	.	.	.
4r	.	16e-	Get
.	.	8e-	on
.	.	16e-	up
4.r	.	2r	.
16f	Get	.	.
16[g-	up	.	.
=128	=128	=128	=128
16g-]	_	4r	.
16e-~	ah	.	.
8r	.	.	.
4r	.	16e-	Get
.	.	8e-	on
.	.	16e-	up
4r	.	2r	.
8r	.	.	.
16ee-	Get	.	.
16[ee-	up	.	.
=129	=129	=129	=129
16ee-]	_	4r	.
16e-~	ah	.	.
8r	.	.	.
4r	.	16e-	Get
.	.	8e-	on
.	.	16e-	up
2r	.	2r	.
=130	=130	=130	=130
1r	.	1r	.
=131	=131	=131	=131
1r	.	1r	.
=132	=132	=132	=132
1r	.	1r	.
=133	=133	=133	=133
1r	.	1r	.
=134	=134	=134	=134
1r	.	1r	.
=135	=135	=135	=135
1r	.	1r	.
=136	=136	=136	=136
1r	.	1r	.
r;	.	r;	.
r;	.	r;	.
*-	*-	*-	*-
!!!ENC: Nathaniel Condit-Schultz